!!!COM: Beethoven, Ludwig van
!!!CDT: 1770///-1827///
!!!OTL: Piano Sonata no. 4 in E-flat major
!!!OTP:	grand sonata
!!!ODE: a Madame la Comtesse Babette de Keglevics
!!!OMD: Rondo: Poco allegretto e grazioso
!!!OPS: 7
!!!OMV: 4
!!!AGN: Rondo
**kern	**kern	**dynam
*staff2	*staff1	*staff1
*>[A,B,B1,B,B2,C,C1,C,C2,D]	*>[A,B,B1,B,B2,C,C1,C,C2,D]	*>[A,B,B1,B,B2,C,C1,C,C2,D]
*>A	*>A	*>A
*clefF4	*clefG2	*clefG2
*k[b-e-a-]	*k[b-e-a-]	*k[b-e-a-]
*E-:	*E-:	*E-:
*M2/4	*M2/4	*M2/4
*MM60	*MM60	*MM60
4r	(8.ff\L	p
.	16ee-\Jk)	.
=1	=1	=1
*^	*^	*
4.r	16BB-\LL	(8ee-/L	4.f\ 4.a-\	.
.	16B-\	.	.	.
.	16B-\	[8dd/J)	.	.
.	16B-\JJ	.	.	.
.	16B-\LL	(16dd/LL]	.	.
.	16B-\	16ff/	.	.
(8e-/	16e-\	16ee-/	8g\	.
.	16B-\JJ	16cc/JJ)	.	.
=2	=2	=2	=2	=2
4d/)	16d\LL	8cc/L	4f\	.
.	16B-\	.	.	.
.	16B-\	[8b-/J	.	.
.	16B-\JJ	.	.	.
4r	16B-\LL	16b-/LL]	8r	.
.	16B-\	16bn/	.	.
.	16D\	16cc/	8f\	.
.	16B-\JJ	16a-/JJ	.	.
*v	*v	*	*	*
*	*v	*v	*
=3	=3	=3
16E-\LL	(16a-/LL	.
16B-\	16g/	.
16G\	16b-/	.
16B-\JJ	16e-/JJ)	.
16F\ 16A-\LL	(16e-/LL	.
16B-\	16d/	.
16E-\ 16G\	16f/)	.
16B-\JJ	([16e-/JJ	.
=4	=4	=4
16BB-\LL	8e-/] 8g/L	.
16B-\	.	.
16B-\	8d/) 8f/J	.
16B-\JJ	.	.
*clefG2	*	*
(16a-/ 16cc/LL	(8.ff\L	.
16B-/	.	.
16g/ 16b-/	.	.
16B-/JJ)	16ee-\Jk)	.
=5	=5	=5
*^	*	*
4a-/	16f\LL	(8ee-\L	.
.	16B-\	.	.
.	16B-\	[8dd\J)	.
.	16B-\JJ	.	.
(8a-/L	16f\LL	(16dd\LL]	.
.	16B-\	16ff\	.
8g/J)	16e-\	16ee-\	.
.	16B-\JJ	16cc\JJ)	.
=6	=6	=6	=6
*	*	*^	*
4f/	16d\LL	(8an/L	4r	.
.	16B-\	.	.	.
.	16B-\	[8b-/J)	.	.
.	16B-\JJ	.	.	.
*v	*v	*	*	*
*clefF4	*	*	*
*^	*	*	*
4r	16B-\LL	(16b-/LL]	8r	.
.	16B-\	16bn/	.	.
.	16D\	16cc/	8f\	.
.	16B-\JJ	16a-/JJ)	.	.
*v	*v	*	*	*
=7	=7	=7	=7
16E-\LL	(16g/LL	8e-\L	.
16G\	16b-/	.	.
16AA-\	16a-/	8c\J	.
16A-\JJ	16f/JJ	.	.
16BB-/LL	8e-/L)	8G\L	.
16BB-/	.	.	.
16BBB-/	16g/Lk	8A-\ 8d\J	.
16BB-/JJ	16f/JJ	.	.
*	*v	*v	*
=8	=8	=8
*^	*	*
4.r	8EE-/L	8G/ 8e-/	.
.	8E-/J	8r	.
.	16r	(32G/LLL	.
.	.	32B-/	.
.	16B-\LL	32e-/	.
.	.	32g/JJJ	.
8G/	16G\	32b-\LLL	.
.	.	32ee-\	.
.	16B-\JJ	32gg\	.
.	.	32ff\JJJ	.
=9	=9	=9	=9
16A-\LL	8A-/L	(8ee-\L)	.
16B-\	.	.	.
16F\	8F/J	8dd\J)	.
16B-\JJ	.	.	.
16G\LL	8G/L	16ee-'\LL	<
16B-\	.	16ff'\	.
16E-\	8E-/J	16gg'\	.
&(16B-\JJ&)	.	16aan'\JJ	.
=10	=10	=10	=10
4r	16BB-\LL	(8ccc\L	.
.	16B-\	.	.
.	16B-\	8bb-\J)	.
.	16B-\JJ	.	.
8r	16r	(32G/LLL	.
.	.	32B-/	.
.	16B-\LL	32e-/	.
.	.	32g/JJJ	.
(8G/	16G\	32b-\LLL	.
.	.	32ee-\	.
.	16B-\JJ	32gg\	.
.	.	32ff\JJJ)	.
=11	=11	=11	=11
16A-\LL	8A-/L	8ee-\L	.
16B-\	.	.	.
16F\	8F/J	8dd\J	.
16B-\JJ	.	.	.
16G\LL	8G/L	16e-'\ 16ee-'\LL	<
16B-\	.	16f'\ 16ff'\	.
16E-\	8E-/J	16g'\ 16gg'\	.
16B-\JJ	.	16an'\ 16aan'\JJ	.
*v	*v	*	*
=12	=12	=12
4BB-;\ 4B-;\)	4b-;\ 4bb-;\	.
*clefG2	*	*
(16a-/ 16cc/LL	8.ff\ 8.fff\L	pp
16B-/	.	.
16g/ 16b-/	.	.
16B-/JJ)	16ee-\ &(16eee-\Jk&)	.
=13	=13	=13
*^	*	*
4a-/	16f\LL	8ee-\ (8eee-\L	<
.	16B-\	.	.
.	16B-\	8dd\ [8ddd\J)	.
.	16B-\JJ	.	.
8a-/L	16f\LL	16dd\ (16ddd\LL]	.
.	16B-\	16ff\ 16fff\	.
8g/J	16e-\	16ee-\ 16eee-\	.
.	16B-\JJ	16cc\ 16ccc\JJ)	.
=14	=14	=14	=14
4f/	16d\LL	8an\ (8aan\L	.
.	16B-\	.	.
.	16B-\	[8b-\ [8bb-\J)	.
.	16B-\JJ	.	.
*v	*v	*	*
*clefF4	*	*
*^	*	*
4r	16B-\LL	16b-\] (16bb-\LL]	.
.	16B-\	16bn\ 16bbn\	.
.	16D\ 16d\	16cc\ 16ccc\	.
.	16B-\JJ	16a-\ 16aa-\JJ)	.
*v	*v	*	*
=15	=15	=15
*	*^	*
16E-\ 16e-\LL	4r	16g\ (16gg\LL	.
16G\	.	16b-\ 16bb-\	.
16AA-\	.	16cc\ 16aa-\	.
16A-\JJ	.	16a-\ 16ff\JJ	.
16BB-\LL	(8ee-/L)	8g\L	.
16B-\	.	.	.
16BBB-\	16gg/L	8a-\ 8dd\J	.
16BB-\JJ	16ff/JJ)	.	.
=16	=16	=16	=16
8EE-/L	8ee-/	8g\	.
8E-/J	4.r	8r	.
32GGG/LLL	.	16r	f
32BBB-/	.	.	.
32EE-/	.	16B-/LL	.
32GG/JJJ	.	.	.
32BB-\LLL	.	16B-/	.
32E-\	.	.	.
32G\	.	16B-/JJ	.
32F\JJJ	.	.	.
=17	=17	=17	=17
(8E-\L	4r	16A-/ 16B-/LL	.
.	.	16A-/ 16B-/	.
8D\J)	.	16A-/ 16B-/	.
.	.	16A-/ 16B-/JJ	.
4r	8r	16G/ 16B-/LL	.
.	.	16G/ 16B-/	.
.	8ee-/	16G/ 16B-/	p
.	.	16G/ 16B-/JJ	.
=18	=18	=18	=18
4r	(8ee-/L	16A-/LL	.
.	.	16A-/	.
.	8dd/J)	16A-/	.
.	.	16A-/JJ	.
32GGG/LLL	4r	16G/ 16B-/LL	.
32BBB-/	.	.	.
32EE-/	.	16G/ 16B-/	.
32GG/JJJ	.	.	.
32BB-\LLL	.	16G/ 16B-/	.
32E-\	.	.	.
32G\	.	16G/ 16B-/JJ	.
32F\JJJ	.	.	.
*	*v	*v	*
=19	=19	=19
(8E-\L	16A-/ 16B-/LL	.
.	16A-/ 16B-/	.
8D\J)	16A-/ 16B-/	.
.	16A-/ 16B-/JJ	.
16F/ 16A-/ 16Bn/LL	8r	.
16F/ 16A-/ 16B/	.	.
16F/ 16A-/ 16B/	8dd'/	p
16F/ 16A-/ 16B/JJ	.	.
=20	=20	=20
16F/ 16G/ 16B-/LL	(8dd/L	.
16F/ 16G/ 16B-/	.	.
16E-/ 16G/ 16c/	8ee-/J)	f
16E-/ 16G/ 16c/JJ	.	.
32r	16G/ 16c/ 16e-/LL	.
32GGG/LLL	.	.
32CC/	16G/ 16c/ 16e-/	.
32EE-/JJJ	.	.
32GG\LLL	16G/ 16c/ 16e-/	.
32C\	.	.
32E-\	16G/ 16c/ 16e-/JJ	.
32D\JJJ	.	.
=21	=21	=21
*	*^	*
(8C/L	4r	16F/ 16d/ 16f/LL	.
.	.	16G/ 16d/ 16f/	.
8BBn/J)	.	16G/ 16d/ 16f/	.
.	.	16G/ 16d/ 16f/JJ	.
4r	8r	16G/ 16c/ 16e-/LL	.
.	.	16G/ 16c/ 16e-/	.
.	8ccc/	16G/ 16c/ 16e-/	p
.	.	16G/ 16c/ 16e-/JJ	.
=22	=22	=22	=22
4r	8ccc/L	16G/ 16d/ 16f/LL	.
.	.	16G/ 16d/ 16f/	.
.	8bbn/J	16G/ 16d/ 16f/	.
.	.	16G/ 16d/ 16f/JJ	.
8r	4r	16G/ 16c/ 16e-/LL	.
.	.	16G/ 16c/ 16e-/	.
8CC/ 8C/	.	16G/ 16c/ 16e-/	.
.	.	16G/ 16c/ 16e-/JJ	.
=23	=23	=23	=23
(8BBB-/ 8BB-/L	4r	16F/ 16c/ 16e-/LL	.
.	.	16F/ 16c/ 16e-/	.
8AAAn/) 8AAn/J	.	16F/ 16c/ 16e-/	.
.	.	16F/ 16c/ 16e-/JJ	.
4r	8r	16F/ 16B-/ 16d/LL	.
.	.	16F/ 16B-/ 16d/	.
.	8bb-/	16F/ 16B-/ 16d/	p
.	.	16F/ 16B-/ 16d/JJ	.
=24	=24	=24	=24
4r	8bb-/L	16F/ 16c/ 16e-/LL	.
.	.	16F/ 16c/ 16e-/	.
.	8aan/J	16F/ 16c/ 16e-/	.
.	.	16F/ 16c/ 16e-/JJ	.
16r	4r	16F/ 16B-/ 16d/LL	.
16BB-/LL	.	16F/ 16B-/ 16d/	p
16BB-/	.	16F/ 16B-/ 16d/	.
16BB-/JJ	.	16F/ 16B-/ 16d/JJ	.
=25	=25	=25	=25
(32AAn/LLL	4r	16F/ 16c/ 16e-/LL	.
32BB-/	.	.	.
32C/	.	16F/ 16c/ 16e-/	.
32BB-/JJ)	.	.	.
8AA'/J	.	16F/ 16c/ 16e-/	.
.	.	16F/ 16c/ 16e-/JJ	.
4r	16r	16F/ 16B-/ 16d/LL	.
.	16bb-/LL	16F/ 16B-/ 16d/	.
.	16bb-/	16F/ 16B-/ 16d/	.
.	16bb-/JJ	16F/ 16d/JJ	.
=26	=26	=26	=26
4r	(32aan/LLL	16F/ 16c/ 16e-/LL	.
.	32bb-/	.	.
.	32ccc/	16F/ 16c/ 16e-/	.
.	32bb-/JJ)	.	.
.	8aa'/J	16F/ 16c/ 16e-/	.
.	.	16F/ 16c/ 16e-/JJ	.
16r	4r	16F/ 16B-/ 16d/LL	.
16BB-/LL	.	16F/ 16B-/ 16d/	f
16BB-/	.	16F/ 16B-/ 16d/	.
(16BB-/JJ	.	16F/ 16B-/ 16d/JJ	.
*	*v	*v	*
=27	=27	=27
32AAn/LLL	4F/ 4c/ 4e-/	.
32BB-/	.	.
32C/	.	.
32BB-/JJJ)	.	.
16AA'/LL	.	.
16FF'/JJ	.	.
(32BB-/LLL	4F/ 4B-/ 4d/	.
32C/	.	.
32D/	.	.
32C/JJJ)	.	.
16BB-'/LL	.	.
16FF'/JJ	.	.
=28	=28	=28
*^	*	*
4F/	8.C\ 8.E-\L	(32an/LLL	.
.	.	32b-/	.
.	.	32cc/	.
.	.	32b-/JJJ)	.
.	.	16a'/LL	.
.	16FF\Jk	16f'/JJ	.
4F/	8.D\L	(32b-\LLL	.
.	.	32cc\	.
.	.	32dd\	.
.	.	32cc\JJJ)	.
.	.	16b-'/LL	.
.	16FF\Jk	16f'/JJ	.
*v	*v	*	*
=29	=29	=29
(32AAn/LLL	4e-'/ 4f'/ 4ee-'/	.
32BB-/	.	.
32C/	.	.
32BB-/JJJ)	.	.
16AA'/LL	.	.
16FF'/JJ	.	.
(32BB-/LLL	8.d/ 8.f/ 8.dd/L	.
32C/	.	.
32D/	.	.
32C/JJJ)	.	.
16BB-'/LL	.	.
16FF'/JJ	16f/Jk	.
=30	=30	=30
8.C\ 8.E-\ 8.F\L	(32an/LLL	.
.	32b-/	.
.	32cc/	.
.	32b-/JJJ)	.
.	16a'/LL	.
16FF\Jk	16f'/JJ	.
8.D\ 8.F\L	(32b-\LLL	.
.	32cc\	.
.	32dd\	.
.	32cc\JJJ)	.
.	16b-'\LL	.
16D\ 16F\ 16A-\Jk	16bn'\JJ	.
=31	=31	=31
8E-\ 8G\	(32cc\LLL	f
.	32dd\	.
.	32ee-\	.
.	32dd\JJJ)	.
8r	16cc'\LL	.
.	16gg'\JJ	.
4r	16ee-'\LL	.
.	16ccc'\	.
.	16gg'\	.
.	16eee-'\JJ	.
=32	=32	=32
8F\ 8An\ 8c\ 8e-\	(32cc\LLL	.
.	32dd\	.
.	32ee-\	.
.	32dd\JJJ)	.
8r	16cc'\LL	.
.	16aan'\JJ	.
4r	16ee-'\LL	.
.	16ccc'\	.
.	16aa'\	.
.	16eee-'\JJ	.
=33	=33	=33
8F#\ 8An\ 8c\ 8e-\	(32cc\LLL	pp
.	32dd\	.
.	32ee-\	.
.	32dd\JJJ)	.
8r	16cc'\LL	.
.	16aan'\JJ	.
4r	16ee-'\LL	.
.	16ccc'\	.
.	16aa'\	.
.	16eee-'\JJ	.
=34	=34	=34
8G\ 8B-\ 8d\	16ddd'\LL	.
.	(16aan\	.
8r	16bb-\)	.
.	(16ff#\JJ	.
8E-\ 8G\ 8c\	16gg\LL)	.
.	(16dd\	.
8r	16ee-\)	.
.	(16cc\JJ	.
=35	=35	=35
8F\ 8B-\ 8d\	16ffn\LL)	.
.	(16cc#\	.
8r	16dd\)	.
.	(16b-\JJ	.
8F\ 8c\ 8e-\	16ee-\LL)	.
.	(16bn\	.
8r	16ccn\)	.
.	(16an\JJ	.
=36	=36	=36
4BB-\ 4B-\	4d/ 4b-/)	.
*clefG2	*	*
8g/L	8r	.
(16.g/L	8bn\ 8dd\	p
64f#/LL	.	.
64g/JJJJ)	.	.
=37	=37	=37
(8e-/L	8cc\ (8ee-\L	.
8c/J)	8ee-\ 8gg\J)	.
8fn/L	8r	.
(16.f/L	8an\ 8cc\	.
64en/LL	.	.
64f/JJJJ)	.	.
=38	=38	=38
8d/L	8b-\ (8dd\L	.
8B-/J	8dd\ 8ff\J)	.
*clefF4	*	*
8An\ 8c\ 8e-\L	8ff\L	.
8F\ 8c\ 8e-\J	(16.ff\L	.
.	64een\LL	.
.	64ff\JJJJ)	.
=39	=39	=39
4B-\ 4d\	(16ee-\LL	.
.	16dd\	.
.	16cc\	.
.	16b-\JJ	.
4G\ 4B-\ 4en\	16an\LL	.
.	16b-\	.
.	16bn\	.
.	16cc\JJ)	.
=40	=40	=40
8F\ 8An\	8f/	.
8r	8r	.
8F\L	8r	.
(16.F\L	8g'/ 8bn'/ 8dd'/	f
64En\LL	.	.
64F\JJJJ)	.	.
=41	=41	=41
(8E-\L	8gg\L	.
8C\J)	(16.gg\L	.
.	64ff#\LL	.
.	64gg\JJJJ)	.
8E-\L	8r	.
(16.E-\L	8f'/ 8an'/ 8cc'/	.
64D\LL	.	.
64E-\JJJJ)	.	.
=42	=42	=42
*^	*	*
(8D/L	4r	8ff\L	.
8BB-/J)	.	(16.ff\L	.
.	.	64een\LL	.
.	.	64ff\JJJJ)	.
4F/	8AAn\ 8C\ 8E-\L	16fff\	.
.	.	16r	.
.	8FF\J	(32eeen\LLL	f
.	.	32fff\)	.
.	.	(32eee\	.
.	.	32fff\JJJ)	.
*v	*v	*	*
=43	=43	=43
8BB-'\ 8D'\ 8F'\L	(16eee-\LL	p
.	16ddd\)	.
8D'\ 8F'\ 8B-'\	(16ccc\	.
.	16bb-\JJ)	.
8F'\ 8An'\ 8c'\	(16bb-\LL	.
.	16aan\)	.
8E-'\ 8F'\ 8A'\ 8c'\J	(16gg\	.
.	16ff\JJ)	.
=44	=44	=44
*^	*	*
4r	8D\ 8F\ 8B-\	16ff'\LL	.
.	.	(32gg\L	.
.	.	32aan\JJJ	.
.	8r	32bb-\LLL	.
.	.	32ccc\	.
.	.	32ddd\	.
.	.	32eee-\JJJ)	.
4F/	8AAn\ 8C\ 8E-\L	16fff'\LL	f
.	.	(32eeen\L	.
.	.	32fff\JJJ)	.
.	8FF\J	(32eee\LLL	.
.	.	32fff\)	.
.	.	(32eee\	.
.	.	32fff\JJJ)	p
*v	*v	*	*
=45	=45	=45
8BB-'\ 8D'\ 8F'\L	16r	.
.	(32eee-\LLL	.
.	32ddd\JJJ)	.
8D'\ 8F'\ 8B-'\	16r	.
.	(32ccc\LLL	.
.	32bb-\JJJ)	.
8F'\ 8An'\ 8c'\	16r	.
.	(32bb-\LLL	.
.	32aan\JJJ)	.
8E-'\ 8F'\ 8A'\ 8c'\J	16r	.
.	(32gg\LLL	.
.	32ff\JJJ)	.
=46	=46	=46
8D\ 8F\ 8B-\	(32een\LLL	.
.	32ff\	.
.	32gg\	.
.	32aan\JJJ	.
8r	32bb-\LLL	.
.	32ccc\	.
.	32ddd\	.
.	32eee-\JJJ	.
(8AAAn/ 8AAn/L	32eeen\LLL	ff
.	32fff\	.
.	32eee\	.
.	32fff\JJJ	.
8FFF/) 8FF/J	32eee\LLL	.
.	32fff\	.
.	32eee\	.
.	32fff\JJJ)	.
=47	=47	=47
8BBB-'/ 8BB-'/L	(32eee-\LLL	.
.	32ddd\	.
.	32ccc\	.
.	32bb-\JJJ)	.
8DD'/ 8D'/	(32bb-\LLL	.
.	32aan\	.
.	32gg\	.
.	32ff\JJJ)	.
8FF'/ 8F'/	(32ff\LLL	.
.	32ee-\	.
.	32dd\	.
.	32cc\JJJ)	.
8FF'/J	(32dd\LLL	.
.	32cc\	.
.	32b-\	.
.	32an\JJJ)	.
=48	=48	=48
4BB-/	(24cc\LL	.
.	24b-\	.
.	24an\JJ	.
.	24cc\LL	.
.	24b-\	.
.	24a\JJ	>
4r	24cc\LL	.
.	24b-\	.
.	24a\JJ	.
.	24cc\LL	.
.	24b-\)	.
.	24a\JJ	.
=49	=49	=49
2r	(24cc\LL	.
.	24b-\	.
.	24an\JJ	.
.	24cc\LL	.
.	24b-\	.
.	24a\JJ)	.
.	(32cc\LLL	.
.	32b-\	.
.	32a\	.
.	32b-\JJJ	<
.	48bn\LLL	.
.	48cc\	.
.	48cc#\	.
.	48dd\	.
.	48ee-\	.
.	48een\JJJ)	.
=50	=50	=50
*	*^	*
2r	[4ff/	4r	.
.	8.ff/L]	[4f\ [4a-\	.
.	16ee-/Jk	.	.
=51	=51	=51	=51
*^	*	*	*
4.r	16BB-\LL	(8ee-/L	4.f\] 4.a-\]	p
.	16B-\	.	.	.
.	16B-\	[8dd/J)	.	.
.	16B-\JJ	.	.	.
.	16B-\LL	(16dd/LL]	.	.
.	16B-\	16ff/	.	.
(8e-/	16e-\	16ee-/	8g\	.
.	16B-\JJ	16cc/JJ)	.	.
=52	=52	=52	=52	=52
4d/)	16d\LL	8cc/L	4f\	.
.	16B-\	.	.	.
.	16B-\	&([8b-/J&)	.	.
.	16B-\JJ	.	.	.
4r	16B-\LL	16b-/LL]	8r	.
.	16B-\	16bn/	.	.
.	16D\	16cc/	8f\	.
.	16B-\JJ	16a-/JJ	.	.
*v	*v	*	*	*
*	*v	*v	*
=53	=53	=53
16E-\LL	(16a-/LL	.
16B-\	16g/	.
16G\	16b-/	.
16B-\JJ	16e-/JJ)	.
16F\ 16A-\LL	(16e-/LL	.
16B-\	16d/	.
16E-\ 16G\	16f/	.
16B-\JJ	[16e-/JJ)	.
=54	=54	=54
16BB-\LL	(8e-/] 8g/L	.
16B-\	.	.
16B-\	8d/) 8f/J	.
16B-\JJ	.	.
*clefG2	*	*
(16a-/ 16cc/LL	(8.ff^\L	.
16B-/	.	.
16g/ 16b-/	.	.
16B-/JJ)	16ee-\Jk)	.
=55	=55	=55
*^	*	*
4a-/	16f\LL	(8ee-\L)	.
.	16B-\	.	.
.	16B-\	[8dd\J)	.
.	16B-\JJ	.	.
(8a-/L	16f\LL	(16dd\LL]	.
.	16B-\	16ff\	.
8g/J	16e-\)	16ee-\	.
.	16B-\JJ	16cc\JJ)	.
=56	=56	=56	=56
*	*	*^	*
4f/	16d\LL	(8an/L	4r	.
.	16B-\	.	.	.
.	16B-\	[8b-/J)	.	.
.	16B-\JJ	.	.	.
*v	*v	*	*	*
*clefF4	*	*	*
*^	*	*	*
4r	16B-\LL	(16b-/LL]	8r	.
.	16B-\	16bn/	.	.
.	16D\	16cc/	8f\	.
.	16B-\JJ	16a-/JJ)	.	.
*v	*v	*	*	*
=57	=57	=57	=57
16E-\LL	16g/LL	8e-\L	.
16G\	16b-/	.	.
16AA-\	16a-/	8c\J	.
16A-\JJ	16f/JJ	.	.
16BB-/LL	(8e-/L	8G\L	.
16BB-/	.	.	.
16BBB-/	16g/L	8A-\ 8d\J	.
16BB-/JJ	16f/JJ)	.	.
*	*v	*v	*
=58	=58	=58
*^	*	*
(8EE-/L	4r	8G/ 8e-/	.
8E-/J)	.	8r	.
8r	16r	(32G/LLL	.
.	.	32B-/	.
.	(16B-\LL	32e-/	.
.	.	32g/JJJ	.
8G/	16G\	32b-\LLL	.
.	.	32ee-\	.
.	16B-\JJ	32gg\	.
.	.	32ff\JJJ)	.
=59	=59	=59	=59
16A-\LL	8A-/L	8ee-\L	.
16B-\	.	.	.
16F\	8F/	&(8dd\J&)	.
16B-\JJ	.	.	.
16G\LL	8G/	16ee-'\LL	<
16B-\	.	16ff'\	.
16E-\	8E-/J	16gg'\	.
16B-\JJ)	.	16aan'\JJ	.
=60	=60	=60	=60
4r	16BB-\LL	(8ccc\L	.
.	16B-\	.	.
.	16B-\	8bb-\J)	.
.	16B-\JJ	.	.
8r	16r	(32G/LLL	.
.	.	32B-/	.
.	(16B-\LL	32e-/	.
.	.	32g/JJJ	.
8G/	16G\	32b-\LLL	.
.	.	32ee-\	.
.	16B-\JJ	32gg\	.
.	.	32ff\JJJ)	.
=61	=61	=61	=61
16A-\LL	8A-/L	32ee-\LLL	.
.	.	32dd\	.
16B-\	.	32cc\	.
.	.	32b-\JJJ	.
16F\	8F/J	32an\LLL	.
.	.	32b-\	.
16B-\JJ	.	32cc\	.
.	.	&(32dd\JJJ&)	<
16G\LL	8G/L	16ee-'\LL	.
16B-\	.	16ff'\	.
16E-\	8E-/J	16gg'\	.
16B-\JJ)	.	16aan'\JJ	.
*v	*v	*	*
=62	=62	=62
2BB-\ 2B-\	2b-\ 2bb-\	p
=63	=63	=63
2BBn\ 2Bn\	2bn\ 2bbn\	.
=64	=64	=64
32C\LLL	4cc\ 4ccc\	ff
32E-\	.	.
32G\	.	.
32c\JJJ	.	.
32A-\LLL	.	.
32G\	.	.
32F#\	.	.
32G\JJJ	.	.
32C\LLL	8r	.
32E-\	.	.
32G\	.	.
32c\JJJ	.	.
32A-\LLL	8e-'\ 8g'\ 8cc'\ 8ee-'\	.
32G\	.	.
32F#\	.	.
32G\JJJ	.	.
*>B	*>B	*>B
=65!|:	=65!|:	=65!|:
32C\LLL	4g'\ 4cc'\ 4ee-'\ 4gg'\	.
32E-\	.	.
32G\	.	.
32c\JJJ	.	.
32A-\LLL	.	.
32G\	.	.
32F#\	.	.
32G\JJJ	.	.
32C\LLL	8r	.
32E-\	.	.
32G\	.	.
32c\JJJ	.	.
32A-\LLL	8cc'\ 8ee-'\ 8gg'\ 8ccc'\	.
32G\	.	.
32F#\	.	.
32G\JJJ	.	.
=66	=66	=66
32BBn\LLL	4d'/ 4g'/ 4bn'/ 4dd'/	.
32D\	.	.
32G\	.	.
32Bn\JJJ	.	.
32A-\LLL	.	.
32G\	.	.
32F#\	.	.
32G\JJJ	.	.
32BB\LLL	8r	.
32D\	.	.
32G\	.	.
32B\JJJ	.	.
32A-\LLL	8g'\ 8b'\ 8dd'\ 8gg'\	.
32G\	.	.
32F#\	.	.
32G\JJJ	.	.
=67	=67	=67
32BBn\LLL	4dd'\ 4gg'\ 4bbn'\ 4ddd'\	.
32D\	.	.
32G\	.	.
32Bn\JJJ	.	.
32A-\LLL	.	.
32G\	.	.
32F#\	.	.
32G\JJJ	.	.
32BB\LLL	8r	.
32D\	.	.
32G\	.	.
32B\JJJ	.	.
32A-\LLL	8dd'\ 8gg'\ 8bb'\ 8ddd'\	.
32G\	.	.
32F#\	.	.
32G\JJJ	.	.
=68	=68	=68
8C\L	32ee-\LLL	.
.	32gg\	.
.	32ccc\	.
.	32eee-\JJJ	.
8c\ 8e-\J	32fff\LLL	.
.	32eee-\	.
.	32ddd\	.
.	32eee-\JJJ	.
8BB-\L	32ee-\LLL	.
.	32gg\	.
.	32bb-\	.
.	32eee-\JJJ	.
8B-\ 8d-\ 8e-\J	32fff\LLL	.
.	32eee-\	.
.	32dddn\	.
.	32eee-\JJJ	.
=69	=69	=69
8AA-\L	32ee-\LLL	.
.	32aa-\	.
.	32ccc\	.
.	32eee-\JJJ	.
8A-\ 8c\ 8e-\J	32fff\LLL	.
.	32eee-\	.
.	32ddd\	.
.	32eee-\JJJ	.
8GG\L	32een\LLL	.
.	32bb-\	.
.	32ddd-\	.
.	32eeen\JJJ	.
8G\ 8B-\ 8d-\ 8en\J	32fff\LLL	.
.	32eee\	.
.	32dddn\	.
.	32eee\JJJ	.
=70	=70	=70
8AA-\L	32r	.
.	32ggg\LLL	.
.	32ccc\	.
.	32aa-\JJJ	.
8A-\ 8c\ 8f\J	32r	.
.	32fff\LLL	.
.	32ccc\	.
.	32aa-\JJJ	.
8BB-\L	32r	.
.	32ddd\LLL	.
.	32aa-\	.
.	32ff\JJJ	.
8B-\ 8f\ 8a-\J	32r	.
.	32ddd\LLL	.
.	32aa-\	.
.	32ff\JJJ	.
=71	=71	=71
*>B1	*>B1	*>B1
8E-\	32r	.
.	32eee-\LLL	.
.	32bb-\	.
.	32gg\JJJ	.
8r	32ee-\LLL	.
.	32b-\	.
.	32g\	.
.	32e-\JJJ	.
8EE-/ 8E-/L	32r	.
.	32B-/LLL	.
.	32g/	.
.	32b-/JJJ	.
8DD/ 8D/J	32r	.
.	32Bn/LLL	.
.	32f/	.
.	32bn/JJJ	.
=72	=72	=72
32C\LLL	4c/ 4e-/ 4g/ 4cc/	.
32E-\	.	.
32G\	.	.
32c\JJJ	.	.
32A-\LLL	.	.
32G\	.	.
32F#\	.	.
32G\JJJ	.	.
32C\LLL	8r	.
32E-\	.	.
32G\	.	.
32c\JJJ	.	.
32A-\LLL	8e-'/ 8g'/ 8cc'/ 8ee-'/	.
32G\	.	.
32F#\	.	.
32G\JJJ	.	.
=73:|!	=73:|!	=73:|!
*>B2	*>B2	*>B2
8E-\	32r	.
.	32eee-\LLL	.
.	32bb-\	.
.	32gg\JJJ	.
8r	32ee-\LLL	.
.	32b-\	.
.	32g\	.
.	32e-\JJJ	.
8EE-/ 8E-/L	32r	.
.	32B-/LLL	.
.	32g/	.
.	32b-/JJJ	.
8DD-/ 8D-/J	32r	.
.	32B-/LLL	.
.	32f/	.
.	32b-/JJJ	.
=74!|:	=74!|:	=74!|:
*>C	*>C	*>C
32CC/LLL	4G/ 4B-/ 4en/	ff
32EEn/	.	.
32GG/	.	.
32C/JJJ	.	.
32D-/LLL	.	.
32C/	.	.
32BBn/	.	.
32C/JJJ	.	.
32CC/LLL	8r	.
32EE/	.	.
32GG/	.	.
32C/JJJ	.	.
32D-/LLL	8B-'/ 8e'/ 8g'/ 8b-'/	.
32C/	.	.
32BB/	.	.
32C/JJJ	.	.
=75	=75	=75
32CC/LLL	4en'\ 4g'\ 4b-'\ 4een'\	.
32EEn/	.	.
32GG/	.	.
32C/JJJ	.	.
32D-/LLL	.	.
32C/	.	.
32BBn/	.	.
32C/JJJ	.	.
32CC/LLL	8r	.
32EE/	.	.
32GG/	.	.
32C/JJJ	.	.
32D-/LLL	8b-'\ 8ee'\ 8gg'\ 8bb-'\	.
32C/	.	.
32BB/	.	.
32C/JJJ	.	.
=76	=76	=76
32FF\LLL	4a-'\ 4cc'\ 4ff'\ 4aa-'\	.
32AA-\	.	.
32C\	.	.
32F\JJJ	.	.
32G\LLL	.	.
32F\	.	.
32En\	.	.
32F\JJJ	.	.
32FF\LLL	8r	.
32AA-\	.	.
32C\	.	.
32F\JJJ	.	.
32G\LLL	8cc'\ 8ff'\ 8aa-'\ 8ccc'\	.
32F\	.	.
32E\	.	.
32F\JJJ	.	.
=77	=77	=77
32FF#\LLL	4cc'\ 4ee-'\ 4aan'\ 4ccc'\	.
32AAn\	.	.
32C\	.	.
32F#\JJJ	.	.
32G\LLL	.	.
32F#\	.	.
32G\	.	.
32F#\JJJ	.	.
32FF#\LLL	8r	.
32AA\	.	.
32C\	.	.
32F#\JJJ	.	.
32G\LLL	8c/ 8e-/ 8an/ 8cc/	.
32F#\	.	.
32G\	.	.
32F#\JJJ	.	.
=78	=78	=78
*^	*	*
4r	8GG/	32Bn/LLL	.
.	.	32d/	.
.	.	32g/	.
.	.	32bn/JJJ	.
.	[4.G\	32cc\LLL	.
.	.	32b\	.
.	.	32a#\	.
.	.	32b\JJJ	.
8r	.	32f\LLL	.
.	.	32b\	.
.	.	32dd\	.
.	.	32ff\JJJ	.
8d/	.	32gg\LLL	.
.	.	32ff\	.
.	.	32een\	.
.	.	32ff\JJJ	.
=79	=79	=79	=79
(8c/L	2G\]	32e-\LLL	.
.	.	32g\	.
.	.	32cc\	.
.	.	32ee-\JJJ	.
8g/J	.	32ff\LLL	.
.	.	32ee-\	.
.	.	32dd\	.
.	.	32ee-\JJJ	.
8e-/L	.	32cc\LLL	.
.	.	32ee-\	.
.	.	32gg\	.
.	.	32ccc\JJJ	.
8c/J)	.	32ddd\LLL	.
.	.	32ccc\	.
.	.	32bbn\	.
.	.	32ccc\JJJ	.
=80	=80	=80	=80
8GG/	(2GG\	32bn\LLL	.
.	.	32dd\	.
.	.	32gg\	.
.	.	32bbn\JJJ	.
(4G/)	.	32ccc\LLL	.
.	.	32bb\	.
.	.	32aa#\	.
.	.	32bb\JJJ	.
.	.	32ff\LLL	.
.	.	32bb\	.
.	.	32ddd\	.
.	.	32fff\JJJ	.
8BBn/	.	32eeen\LLL	.
.	.	32fff\	.
.	.	32eee\	.
.	.	32fff\JJJ	.
=81	=81	=81	=81
&(8C\&) 8G\L	2GG/)	32ee-\LLL	.
.	.	32gg\	.
.	.	32ccc\	.
.	.	32eee-\JJJ	.
8G\	.	32fff\LLL	.
.	.	32eee-\	.
.	.	32ddd\	.
.	.	32eee-\JJJ	.
8E-\	.	32cc\LLL	.
.	.	32ee-\	.
.	.	32gg\	.
.	.	32ccc\JJJ	.
8C\J	.	32ddd\LLL	.
.	.	32ccc\	.
.	.	32bbn\	.
.	.	32ccc\JJJ	.
*v	*v	*	*
=82	=82	=82
8GG\ 8G\	32bbn\LLL	.
.	32ddd\	.
.	32ccc\	.
.	32bb\JJJ	.
8r	32aa-\LLL	.
.	32gg\	.
.	32ff\	.
.	32ee-\JJJ	.
4r	32dd\LLL	.
.	32cc\	.
.	32bn\	.
.	32a-\JJJ	.
.	32g\LLL	.
.	32f\	.
.	32e-\	.
.	32d\JJJ	.
=83	=83	=83
32CC/LLL	4E-/ 4G/ 4c/	ff
32EE-/	.	.
32GG/	.	.
32C/JJJ	.	.
32D/LLL	.	.
32C/	.	.
32BBn/	.	.
32C/JJJ	.	.
32CC/LLL	8r	.
32EE-/	.	.
32GG/	.	.
32C/JJJ	.	.
32D/LLL	8e-'/ 8g'/ 8cc'/ 8ee-'/	.
32C/	.	.
32BB/	.	.
32C/JJJ	.	.
=84	=84	=84
32CC/LLL	4g'\ 4cc'\ 4ee-'\ 4gg'\	.
32EE-/	.	.
32GG/	.	.
32C/JJJ	.	.
32D/LLL	.	.
32C/	.	.
32BBn/	.	.
32C/JJJ	.	.
32CC/LLL	8r	.
32EE-/	.	.
32GG/	.	.
32C/JJJ	.	.
32D/LLL	8cc'\ 8ee-'\ 8gg'\ 8ccc'\	.
32C/	.	.
32BB/	.	.
32C/JJJ	.	.
=85	=85	=85
4BBB-/ 4BB-/	32c/LLL	.
.	32en/	.
.	32g/	.
.	32cc/JJJ	.
.	32dd-\LLL	.
.	32cc\	.
.	32bn\	.
.	32cc\JJJ	.
8r	32e\LLL	.
.	32g\	.
.	32cc\	.
.	32een\JJJ	.
8BB-\ 8En\ 8G\ 8B-\	32ff\LLL	.
.	32ee\	.
.	32dd#\	.
.	32ee\JJJ	.
=86	=86	=86
4BBB-/ 4BB-/	32g\LLL	.
.	32cc\	.
.	32een\	.
.	32gg\JJJ	.
.	32aa-\LLL	.
.	32gg\	.
.	32ff#\	.
.	32gg\JJJ	.
8r	32cc\LLL	.
.	32ee\	.
.	32gg\	.
.	32ccc\JJJ	.
8BB-\ 8En\ 8G\ 8B-\	32ddd-\LLL	.
.	32ccc\	.
.	32bbn\	.
.	32ccc\JJJ	.
=87	=87	=87
8AA-\ 8C\ 8F\ 8A-\	32cc\LLL	.
.	32ff\	.
.	32aa-\	.
.	32ccc\JJJ	.
8r	32dddn\LLL	.
.	32ccc\	.
.	32bbn\	.
.	32ccc\JJJ	.
32F\LLL	32a-\LLL	.
32A-\	32cc\	.
32c\	32ff\	.
32f\JJJ	32aa-\JJJ	.
32g\LLL	32bb-\LLL	.
32f\	32aa-\	.
32en\	32gg\	.
32f\JJJ	32aa-\JJJ	.
=88	=88	=88
32D\LLL	32f\LLL	.
32F\	32bn\	.
32Bn\	32dd\	.
32d\JJJ	32ff\JJJ	.
32e-\LLL	32gg\LLL	.
32d\	32ff\	.
32c#\	32een\	.
32d\JJJ	32ff\JJJ	.
32BBn\LLL	32d\LLL	.
32D\	32g\	.
32G\	32b\	.
32B\JJJ	32dd\JJJ	.
32c#\LLL	32ee-\LLL	.
32B\	32dd\	.
32A#\	32cc#\	.
32B\JJJ	32dd\JJJ	.
=89	=89	=89
8C\ 8E-\ 8G\ 8c\L	32r	.
.	32g\LLL	.
.	32ccn\	.
.	32ee-\JJJ	.
8F\ 8A-\ 8d\	32r	.
.	32a-\LLL	.
.	32dd\	.
.	32ff\JJJ	.
8G\ 8c\ 8e-\	32r	.
.	32g\LLL	.
.	32cc\	.
.	32ee-\JJJ	.
8G\ 8Bn\ 8d\J	32r	.
.	32f\LLL	.
.	32bn\	.
.	32dd\JJJ	.
=90	=90	=90
*>C1	*>C1	*>C1
8C\ 8E-\ 8G\ 8c\	32r	.
.	32cc\LLL	.
.	32bn\	.
.	32cc\JJJ	.
8r	32b\LLL	.
.	32cc\	.
.	32g\	.
.	32e-\JJJ	.
16r	8c/	.
32BBn/LLL	.	.
32C/JJJ	.	.
32BB/LLL	8r	.
32C/	.	.
32BB/	.	.
32C/JJJ	.	.
=91:|!	=91:|!	=91:|!
*>C2	*>C2	*>C2
*	*^	*
2r	4r	32c\LLL	.
.	.	32e-\	.
.	.	32g\	.
.	.	32cc\JJJ	.
.	.	32dd\LLL	.
.	.	32cc\	.
.	.	32bn\	.
.	.	32cc\JJJ	ff
.	32cc/LLL	32A-\LLL	.
.	32ff/	32c\	.
.	32aa-/	32f\	.
.	32ccc/JJJ	32a-\JJJ	.
.	32ddd/LLL	32b-\LLL	.
.	32ccc/	32a-\	.
.	32bbn/	32g\	.
.	32ccc/JJJ	32a-\JJJ	.
*	*v	*v	*
=92	=92	=92
*>D	*>D	*>D
32F\LLL	32a-\LLL	.
32A-\	32cc\	.
32c\	32ff\	.
32f\JJJ	32aa-\JJJ	.
32g\LLL	32bb-\LLL	.
32f\	32aa-\	.
32en\	32gg\	.
32f\JJJ	32aa-\JJJ	.
32D\LLL	32f\LLL	.
32F\	32bn\	.
32Bn\	32dd\	.
32d\JJJ	32ff\JJJ	.
32e-\LLL	32gg\LLL	.
32d\	32ff\	.
32c#\	32een\	.
32d\JJJ	32ff\JJJ	.
=93	=93	=93
8BBn/	32f\LLL	.
.	32a-\	.
.	32cc#\	.
.	32dd\JJJ	.
8r	32ee-\LLL	.
.	32dd\	.
.	32cc#\	.
.	32dd\JJJ	>
4r	32f\LLL	.
.	32a-\	.
.	32cc#\	.
.	32dd\JJJ	.
.	32ee-\LLL	.
.	32dd\	.
.	32cc#\	.
.	32dd\JJJ	.
=94	=94	=94
2r	32f\LLL	.
.	32a-\	.
.	32cc#\	.
.	32dd\JJJ	.
.	32ee-\LLL	.
.	32dd\	.
.	32cc#\	.
.	32dd\JJJ	.
.	32f\LLL	.
.	32a-\	.
.	32cc#\	.
.	32dd\JJJ	.
.	32ee-\LLL	.
.	32dd\	.
.	32cc#\	.
.	32dd\JJJ	.
=95	=95	=95
8BBB-/ 8BB-/	32f\LLL	.
.	32a-\	.
.	32cc#\	.
.	32dd\JJJ	.
8r	32ee-\LLL	.
.	32dd\	.
.	32cc#\	.
.	32dd\JJJ	.
4r	32f\LLL	.
.	32a-\	.
.	32cc#\	.
.	32dd\JJJ	.
.	32ee-\LLL	.
.	32dd\	.
.	32cc#\	.
.	32dd\JJJ	.
=96	=96	=96
2r	32f\LLL	.
.	32a-\	.
.	32cc#\	.
.	32dd\JJJ	.
.	32ee-\LLL	pp
.	32dd\	.
.	32cc#\	.
.	32dd\JJJ	.
.	(8.ff^\L	.
.	16ee-\Jk)	.
=97	=97	=97
*^	*^	*
4.r	16BB-\LL	8ee-/L	4.f\ 4.a-\	p
.	16B-\	.	.	.
.	16B-\	[8dd/J	.	.
.	16B-\JJ	.	.	.
.	16B-\LL	(16dd/LL]	.	.
.	16B-\	16ff/	.	.
8e-/	(16e-\	16ee-/	8g\	.
.	16B-\JJ	16cc/JJ)	.	.
=98	=98	=98	=98	=98
4d/	16d\LL)	8cc/L	4f\	.
.	16B-\	.	.	.
.	16B-\	&([8b-/J&)	.	.
.	16B-\JJ	.	.	.
4r	16B-\LL	16b-/LL]	8r	.
.	16B-\	16bn/	.	.
.	16D\	16cc/	8f\	.
.	16B-\JJ	16a-/JJ	.	.
*v	*v	*	*	*
*	*v	*v	*
=99	=99	=99
16E-\LL	(16a-/LL	.
16B-\	16g/	.
16G\	16b-/	.
16B-\JJ	16e-/JJ)	.
16F\ 16A-\LL	(16e-/LL	.
16B-\	16d/	.
16E-\ 16G\	16f/	.
16B-\JJ	[16e-/JJ)	.
=100	=100	=100
16BB-\LL	(8e-/] 8g/L	.
16B-\	.	.
16B-\	8d/) 8f/J	.
16B-\JJ	.	.
*clefG2	*	*
(16a-/ 16cc/LL	(8.ff^\L	.
16B-/	.	.
16g/ 16b-/	.	.
16B-/JJ)	16ee-\Jk)	.
=101	=101	=101
*^	*	*
4a-/	16f\LL	(8ee-\L	.
.	16B-\	.	.
.	16B-\	[8dd\J)	.
.	16B-\JJ	.	.
8a-/L	16f\LL	(24dd\LL]	.
.	.	24ee-\	.
.	16B-\	.	.
.	.	24dd\JJ	.
8g/J	16e-\	24ff\LL	.
.	.	24ee-\)	.
.	16B-\JJ	.	.
.	.	24cc'\JJ	.
=102	=102	=102	=102
4f/	16d\LL	(8an\L	.
.	16B-\	.	.
.	16B-\	[8b-\J)	.
.	16B-\JJ	.	.
*v	*v	*	*
*clefF4	*	*
*^	*	*
4r	16B-\LL	(24b-\LL]	.
.	.	24cc\	.
.	16B-\	.	.
.	.	24bn\JJ	.
.	16D\	24dd\LL	.
.	.	24cc\)	.
.	16B-\JJ	.	.
.	.	24a-'\JJ	.
*v	*v	*	*
=103	=103	=103
*	*^	*
16E-\LL	(24g/LL	8r	.
.	24a-/	.	.
16B-\	.	.	.
.	24g/JJ	.	.
16AA-\	24b-/LL)	8c\	.
.	24a-'/	.	.
16A-\JJ	.	.	.
.	24f'/JJ	.	.
16BB-/LL	(8e-/L	8G\L	.
16BB-/	.	.	.
16BBB-/	16g/L	8A-\ 8d\J	.
16BB-/JJ	16f/JJ	.	.
*	*v	*v	*
=104	=104	=104
*^	*	*
4r	8EE-/L	8G/ 8e-/)	.
.	8E-/J	8r	.
16r	8r	32G/LLL	.
.	.	32B-/	.
(16B-\LL	.	32e-/	.
.	.	32g/JJJ	.
16G\	8G/	32b-\LLL	.
.	.	32ee-\	.
16B-\JJ	.	32gg\	.
.	.	32ff\JJJ	.
=105	=105	=105	=105
16A-\LL	8A-/L	8ee-\L	.
16B-\	.	.	.
16F\	8F/J	&(8dd\J&)	.
16B-\JJ	.	.	.
16G\LL	8G/L	16ee-'\LL	<
16B-\	.	16ff'\	.
16E-\	8E-/J	16gg'\	.
16B-\JJ)	.	16aan'\JJ	.
=106	=106	=106	=106
4r	16BB-\LL	(8ccc\L	.
.	16B-\	.	.
.	16B-\	8bb-\J)	.
.	16B-\JJ	.	.
8r	16r	32G/LLL	.
.	.	32B-/	.
.	(16B-\LL	32e-/	.
.	.	32g/JJJ	.
8G/	16G\	32b-\LLL	.
.	.	32ee-\	.
.	16B-\JJ	32gg\	.
.	.	32ff\JJJ	.
=107	=107	=107	=107
16A-\LL	8A-/L	8ee-\L	.
16B-\	.	.	.
16F\	8F/J	8dd\J	.
16B-\JJ	.	.	.
16G\LL	8G/L	&(16ee-'\LL&)	.
16B-\	.	16f'\ 16ff'\	.
16E-\	8E-/J	16g'\ 16gg'\	.
[16B-\JJ)	.	16an'\ 16aan'\JJ	.
=108	=108	=108	=108
4r	4BB-;\ 4B-;\]	4b-;\ 4bb-;\	.
*v	*v	*	*
*clefG2	*	*
*^	*	*
8cc/L	16a-\LL	8.ff\ (8.fff\L	p
.	16B-\	.	.
8b-/J	16g\	.	.
.	16B-\JJ	16ee-\ 16eee-\Jk)	.
=109	=109	=109	=109
4a-/	16f\LL	8ee-\ (8eee-\L	<
.	16B-\	.	.
.	16B-\	[8dd\ [8ddd\J)	.
.	16B-\JJ	.	.
8a-/L	16f\LL	16dd\] (16ddd\LL]	.
.	16B-\	16ff\ 16fff\	.
8g/J	16e-\	16ee-\ 16eee-\	.
.	16B-\JJ	16cc\ 16ccc\JJ)	.
=110	=110	=110	=110
4f/	16d\LL	8an\ (8aan\L	.
.	16B-\	.	.
.	16B-\	[8b-\ [8bb-\J)	.
.	16B-\JJ	.	.
*v	*v	*	*
*clefF4	*	*
*^	*	*
4r	16B-\LL	16b-\] (16bb-\LL]	.
.	16B-\	16bn\ 16bbn\	.
.	16D\ 16d\	16cc\ 16ccc\	.
.	16B-\JJ	16a-\ 16aa-\JJ)	.
*v	*v	*	*
=111	=111	=111
*	*^	*
16E-\ 16e-\LL	4r	16g\ (16gg\LL	.
16G\	.	16b-\ 16bb-\	.
16AA-\	.	16cc\ 16aa-\	.
16A-\JJ	.	16a-\ 16ff\JJ)	.
16BB-\LL	8ee-/L	8g\L	.
16B-\	.	.	.
16BBB-\	16gg/L	8a-\ 8dd\J	.
16BB-\JJ	16ff/JJ	.	.
*	*v	*v	*
=112	=112	=112
(8EE-/L	8g\ 8ee-\	.
8E-/J)	8r	.
32GGG/LLL	16r	f
32BBB-/	.	.
32EE-/	16B-/LL	.
32GG/JJJ	.	.
32BB-\LLL	16B-/	.
32E-\	.	.
32G\	16B-/JJ	.
32F\JJJ	.	.
=113	=113	=113
*	*^	*
(8E-\L	4r	16A-/ 16B-/LL	.
.	.	16A-/ 16B-/	.
8D\J)	.	16A-/ 16B-/	.
.	.	16A-/ 16B-/JJ	.
4r	8r	16G\ 16B-\LL	.
.	.	16G\ 16B-\	.
.	8ee-/	16G\ 16B-\	p
.	.	16G\ 16B-\JJ	.
=114	=114	=114	=114
4r	8ee-/L	16A-\ 16B-\LL	.
.	.	16A-\ 16B-\	.
.	8dd/J	16A-\ 16B-\	.
.	.	16A-\ 16B-\JJ	.
32GGG/LLL	4r	16G/ 16B-/LL	f
32BBB-/	.	.	.
32EE-/	.	16G/ 16B-/	.
32GG/JJJ	.	.	.
32BB-\LLL	.	16G/ 16B-/	.
32E-\	.	.	.
32G\	.	16G/ 16B-/JJ	.
32F\JJJ	.	.	.
=115	=115	=115	=115
(8E-\L	4r	16A-/ 16B-/LL	.
.	.	16A-/ 16B-/	.
8D\J)	.	16A-/ 16B-/	.
.	.	16A-/ 16B-/JJ	.
4r	8r	16G\ 16B-\LL	.
.	.	16G\ 16B-\	.
.	8ee-'/	16G\ 16B-\	p
.	.	16G\ 16B-\JJ	.
=116	=116	=116	=116
4r	8een/L	16G\ 16B-\ 16c\LL	.
.	.	16G\ 16B-\ 16c\	.
.	8ff/J	16A-\ 16c\	.
.	.	16A-\ 16c\JJ	.
32r	4r	16A-/ 16c/LL	f
32CC/LLL	.	.	.
32FF/	.	16A-/ 16c/	.
32AA-/JJJ	.	.	.
32C\LLL	.	16A-/ 16c/	.
32F\	.	.	.
32A-\	.	16A-/ 16c/JJ	.
32G\JJJ	.	.	.
=117	=117	=117	=117
(8F\L	4r	16B-/ 16c/LL	.
.	.	16B-/ 16c/	.
8En\J)	.	16B-/ 16c/	.
.	.	16B-/ 16c/JJ	.
4r	8r	16A-\ 16c\LL	.
.	.	16A-\ 16c\	.
.	8ff/	16A-\ 16c\	p
.	.	16A-\ 16c\JJ	.
=118	=118	=118	=118
4r	8ff/L	16B-\ 16c\LL	.
.	.	16B-\ 16c\	.
.	8een/J	16B-\ 16c\	.
.	.	16B-\ 16c\JJ	.
16r	4r	16A-/ 16c/LL	.
16FF/LL	.	16A-/ 16c/	p
16FF/	.	16A-/ 16c/	.
16FF/JJ	.	16A-/ 16c/JJ	.
=119	=119	=119	=119
(32EEn/LLL	4r	16B-/ 16c/LL	.
32FF/	.	.	.
32GG/	.	16B-/ 16c/	.
32FF/JJ)	.	.	.
8EE'/J	.	16B-/ 16c/	.
.	.	16B-/ 16c/JJ	.
4r	16r	16A-\ 16c\LL	.
.	16ff/LL	16A-\ 16c\ 16f\	.
.	16ff/	16A-\ 16c\ 16f\	.
.	16ff/JJ	16A-\ 16c\ 16f\JJ	.
=120	=120	=120	=120
4r	(32een/LLL	16B-\ 16c\ 16g\LL	.
.	32ff/	.	.
.	32gg/	16B-\ 16c\ 16g\	.
.	32ff/JJ	.	.
.	8ee'/J)	16B-\ 16c\ 16g\	.
.	.	16B-\ 16c\ 16g\JJ	.
16r	4r	16A-/ 16c/ 16f/LL	.
16FF/LL	.	16A-/ 16c/ 16f/	p
16FF/	.	16A-/ 16c/ 16f/	.
16FF/JJ	.	16A-/ 16c/ 16f/JJ	.
=121	=121	=121	=121
(32DD/LLL	4r	16A-/ 16B-/ 16f/LL	.
32EE-/	.	.	.
32FF/	.	16A-/ 16B-/ 16f/	.
32EE-/JJ)	.	.	.
8DD'/J	.	16A-/ 16B-/ 16f/	.
.	.	16A-/ 16B-/ 16f/JJ	.
4r	16r	16G\ 16B-\ 16e-\LL	.
.	16ee-/LL	16G\ 16B-\ 16e-\	.
.	16ee-/	16G\ 16B-\ 16e-\	.
.	16ee-/JJ	16G\ 16B-\ 16e-\JJ	.
=122	=122	=122	=122
4r	(32dd/LLL	16A-\ 16B-\ 16f\LL	.
.	32ee-/	.	.
.	32ff/	16A-\ 16B-\ 16f\	.
.	32ee-/JJ	.	.
.	8dd/J)	16A-\ 16B-\ 16f\	.
.	.	16A-\ 16B-\ 16f\JJ	.
16r	4r	16G/ 16B-/ 16e-/LL	f
16EE-/LL	.	16G/ 16B-/ 16e-/	f
16EE-/	.	16G/ 16B-/ 16e-/	.
16EE-/JJ	.	16G/ 16B-/ 16e-/JJ	.
*	*v	*v	*
=123	=123	=123
(32DD/LLL	4A-/ 4B-/ 4a-/	.
32EE-/	.	.
32FF/	.	.
32EE-/JJJ)	.	.
16DD'/LL	.	.
16BBB-'/JJ	.	.
(32EE-/LLL	4G/ 4B-/ 4g/	.
32FF/	.	.
32GG/	.	.
32FF/JJJ)	.	.
16EE-'/LL	.	.
16BBB-'/JJ	.	.
=124	=124	=124
4FF/ 4AA-/ 4BB-/ 4D/	(32d/LLL	.
.	32e-/	.
.	32f/	.
.	32e-/JJJ)	.
.	16d'/LL	.
.	16B-'/JJ	.
8.GG/ 8.BB-/ 8.E-/L	(32e-/LLL	.
.	32f/	.
.	32g/	.
.	32f/JJJ)	.
.	16e-'/LL	.
16BB-/Jk	16B-'/ 16b-'/JJ	.
=125	=125	=125
(32D\LLL	4a-\ 4b-\ 4aa-\	.
32E-\	.	.
32F\	.	.
32E-\JJJ)	.	.
16D'\LL	.	.
16BB-'\JJ	.	.
(32E-\LLL	8.g\ 8.b-\ 8.gg\L	.
32F\	.	.
32G\	.	.
32F\JJJ)	.	.
16E-'\LL	.	.
16BB-'\JJ	16b-\Jk	.
=126	=126	=126
4F\ 4A-\ 4B-\ 4d\	(32dd\LLL	.
.	32ee-\	.
.	32ff\	.
.	32ee-\JJJ)	.
.	16dd'\LL	.
.	16b-'\JJ	.
8.G\ 8.B-\ 8.e-\L	(32ee-\LLL	.
.	32ff\	.
.	32gg\	.
.	32ff\JJJ)	.
.	16ee-'\LL	.
16G\ 16B-\ 16d-\Jk	16en\ 16een\JJ	.
=127	=127	=127
8A-\ 8c\	(32f/ 32ff/LLL	f
.	32g/	.
.	32a-/	.
.	32g/JJJ)	.
8r	16f'/LL	.
.	16cc'/JJ	.
4r	16a-'\LL	.
.	16ff'\	.
.	16cc'\	.
.	16aa-'\JJ	.
=128	=128	=128
8B-\ 8d\	(32f/LLL	.
.	32g/	.
.	32a-/	.
.	32g/JJJ)	.
8r	16f'\LL	.
.	16dd'\JJ	.
4r	16a-'\LL	.
.	16ff'\	.
.	16dd'\	.
.	16aa-'\JJ	.
*clefG2	*	*
=129	=129	=129
8Bn/ 8f/ 8a-/	(32dd\LLL	pp
.	32ee-\	.
.	32ff\	.
.	32ee-\JJJ)	.
8r	16dd'\LL	.
.	16aa-'\JJ	.
4r	16ff'\LL	.
.	16ddd'\	.
.	16aa-'\	.
.	16fff'\JJ	.
=130	=130	=130
8c/ 8e-/ 8g/	16eee-'\LL	.
.	(16ddd\	.
8r	16eee-\)	.
.	(16bbn\JJ	.
8A-/ 8c/ 8f/	16ccc\LL)	.
.	(16gg\	.
8r	16aa-\)	.
.	(16ff\JJ	.
=131	=131	=131
8B-/ 8e-/ 8g/	16bb-\LL)	.
.	(16ff#\	.
8r	16gg\)	.
.	(16ee-\JJ	.
*clefF4	*	*
8BB-\ 8B-\	16aa-\LL)	.
.	(16een\	.
8r	16ffn\)	.
.	(16dd\JJ	.
=132	=132	=132
4EE-/ 4E-/	4ee-\)	.
*clefG2	*	*
8cc\L	8r	.
(16.cc\L	8een\ 8gg\	.
64bn\LL	.	.
64cc\JJJJ)	.	.
=133	=133	=133
(8a-/L	8ff\ (8aa-\L	.
8f/J)	8aa-\ 8ccc\J)	.
8b-/L	8r	.
(16.b-/L	8dd\ 8ff\	.
64an/LL	.	.
(64b-/JJJJ)	.	.
=134	=134	=134
8g/L	8ee-\ 8gg\L	.
8e-/J)	8gg\ &(8bb-\J&)	.
8d/ 8f/ 8a-/L	8bb-\L	.
8B-/ 8f/ 8a-/J	16.bb-\L	.
.	64aan\LL	.
.	&(64bb-\JJJJ&)	.
=135	=135	=135
4e-/ 4g/	(16aa-\LL	.
.	16gg\	.
.	16ff\	.
.	16ee-\JJ	.
4c/ 4e-/ 4an/	16dd\LL	.
.	16ee-\	.
.	16een\	.
.	16ff\JJ)	.
*clefF4	*	*
=136	=136	=136
8B-\ 8d\	8b-\	.
8r	8r	.
8B-\L	8r	.
(16.B-\L	8g'\ 8cc'\ 8een'\	f
64An\LL	.	.
64B-\JJJJ)	.	.
=137	=137	=137
(8A-\L	8ccc\L	.
8F\J)	(16.ccc\L	.
.	64bbn\LL	.
.	64ccc\JJJJ)	.
8A-\L	8r	.
(16.A-\L	8f'/ 8b-'/ 8dd'/	.
64G\LL	.	.
64A-\JJJJ)	.	.
=138	=138	=138
*^	*	*
4r	(8G\L	8bb-\L	.
.	8E-\J)	(16.bb-\L	.
.	.	64aan\LL	.
.	.	64bb-\JJJJ)	.
4F/ 4A-/ 4B-/	8D\L	8r	.
.	8BB-\J	(16.bb-\LL	f
.	.	64aan\LL	.
.	.	64bb-\JJJJ)	.
*v	*v	*	*
=139	=139	=139
8E-'\ 8G'\ 8B-'\L	(16aa-\LL	p
.	16gg\)	.
8G'\ 8B-'\ 8e-'\	(16ff\	.
.	16ee-\JJ)	.
8B-'\ 8d'\ 8f'\	(16ee-\LL	.
.	16dd\)	.
8A-'\ 8B-'\ 8d'\ 8f'\J	(16cc\	.
.	16b-\JJ)	.
=140	=140	=140
*^	*	*
8G\ 8B-\ 8e-\	4r	16b-'\LL	.
.	.	(32cc\L	.
.	.	32dd\JJJ	.
8r	.	32ee-\LLL	.
.	.	32ff\	.
.	.	32gg\	.
.	.	32aa-\JJJ)	.
8D\L	4F/ 4A-/ 4B-/	16bb-'\LL	f
.	.	(32aan\L	.
.	.	32bb-\JJJ	.
8BB-\J	.	32aa\LLL	.
.	.	32bb-\	.
.	.	32ccc\	.
.	.	32bb-\JJJ)	.
*v	*v	*	*
=141	=141	=141
8E-'\ 8G'\ 8B-'\L	16r	.
.	(32aa-\LLL	p
.	32gg\JJJ)	.
8G'\ 8B-'\ 8e-'\	16r	.
.	32ff\LLL	.
.	32ee-\JJJ	.
8B-'\ 8d'\ 8f'\	16r	.
.	(32ee-\LLL	.
.	32dd\JJJ)	.
8A-'\ 8B-'\ 8d'\ 8f'\J	16r	.
.	(32cc\LLL	.
.	32b-\JJJ)	.
=142	=142	=142
8G\ 8B-\ 8e-\	(32an\LLL	.
.	32b-\	.
.	32cc\	.
.	32dd\JJJ	.
8r	32ee-\LLL	.
.	32ff\	.
.	32gg\	.
.	32aa-\JJJ	.
(8DD/ 8D/L	32aan\LLL	f
.	32bb-\	.
.	32aa\	.
.	32bb-\JJJ	.
8BBB-/) 8BB-/J	32aa\LLL	.
.	32bb-\	.
.	32ccc\	.
.	32bb-\JJJ)	.
=143	=143	=143
4EE-/ 4E-/	32aa-\LLL	.
.	32gg\	.
.	32ff\	.
.	32ee-\JJJ	.
.	32dd\LLL	.
.	32ee-\	.
.	32ff\	.
.	32ee-\JJJ	.
4CC/ 4C/	32dd\LLL	.
.	32cc\	.
.	32b-\	.
.	32an\JJJ	.
.	32ee-\LLL	.
.	32a\	.
.	32ee-\	.
.	32a\JJJ	.
=144	=144	=144
8BBB-/ 8BB-/	32cc\LLL	p
.	32b-\	.
.	32an\	.
.	32b-\JJJ	.
8r	32bn\LLL	.
.	32cc\	.
.	32cc#\	.
.	32dd\JJJ	.
4r	32ee-\LLL	.
.	32een\	.
.	32ff\	.
.	32ff#\JJJ	.
.	32gg\LLL	.
.	32aa-\	.
.	32aan\	.
.	32bb-\JJJ	.
=145	=145	=145
2r	(24bbn'\LL	pp
.	24ccc\	.
.	24ccc#'\JJ	.
.	24ddd'\LL	.
.	24eee-'\	.
.	24eeen'\JJ)	.
.	(8.fff\L	.
.	16eee-\Jk)	.
*clefG2	*	*
=146	=146	=146
*^	*	*
4a-/	16f\LL	(8eee-\L)	.
.	16B-\	.	.
.	16B-\	[8ddd\J)	.
.	16B-\JJ	.	.
8a-/L	16f\LL	(16ddd\LL]	.
.	16B-\	16fff\	.
8g/J	16e-\	16eee-\	.
.	16B-\JJ	16ccc\JJ)	.
=147	=147	=147	=147
4f/	16d\LL	(8ccc\L	.
.	16B-\	.	.
.	16B-\	[8bb-\J)	.
.	16B-\JJ	.	.
8r	16B-\LL	(16bb-/LL]	.
.	16B-\JJ	16bb-/	.
*v	*v	*	*
*clefF4	*	*
*^	*	*
16d/LL	(8D\	16ccc/	.
16B-/JJ	.	16aa-/JJ)	.
=148	=148	=148	=148
*	*	*^	*
16e-/LL	8E-\L	16aa-/LL	8r	.
16B-/	.	16gg/	.	.
16g/	8G\	16bb-/	8b-\L	.
16B-/JJ	.	16ee-/JJ	.	.
16f/LL	8F\	16ee-/LL	8a-\	.
16B-/	.	16dd/	.	.
16e-/	8E-\J)	16ff/	8g\J	.
16B-/JJ	.	&(16ee-/JJ&)	.	.
*v	*v	*	*	*
*	*v	*v	*
=149	=149	=149
16BB-\LL	8ee-\ (8gg\L	.
16B-\	.	.
16B-\	8dd\ 8ff\J)	.
16B-\JJ	.	.
*clefG2	*	*
16a-/ 16cc/LL	16r	.
16B-/	8ff\ 8fff\L	.
16g/ 16b-/	.	.
16B-/JJ	[16een\ [16eeen\Jk	.
=150	=150	=150
16f#/ 16an/LL	16ee\] 16eee\LK]	.
16B-/	8ee-\ (8eee-\	.
16fn/ 16a-/	.	.
16B-/JJ	8dd\ 8ddd\	.
16en/ 16g/LL	.	.
16B-/	8dd-\ 8ddd-\	.
16e-/ 16g-/	.	.
16B-/JJ	[16cc\ [16ccc\Jk	.
=151	=151	=151
16d/ 16f/LL	16cc\] 16ccc\LK]	.
16B-/	8cc-\ 8ccc-\	.
16d-/ 16f-/	.	.
16B-/JJ	8b-\ 8bb-\	.
16c/ 16e-/LL	.	.
16B-/	8an\ 8aan\	.
16dn/ 16fn/	.	.
16B-/JJ	[16a-\ [16aa-\Jk)	.
*clefF4	*	*
=152	=152	=152
*	*^	*
16E-\LL	8r	16a-\] (16aa-\LL]	.
16e-\	.	16g\ 16gg\JJ	.
16AA-\	(24bb-/LL)	8cc\	.
.	24aa-/	.	.
16A-\JJ	.	.	.
.	24ff/JJ	.	.
16BB-\LL	(8ee-/L)	8g\L	.
16B-\	.	.	.
16BBB-\	16gg/L	8a-\ 8dd\J	.
16BB-\JJ	16ff/JJ)	.	.
*	*v	*v	*
=153	=153	=153
*k[b-e-]	*k[b-e-]	*k[b-e-]
*^	*	*
16E-/LL	8EE-\	8g\ 8ee-\	.
16BB-/	.	.	.
16BB-/	8r	8r	.
16BB-/JJ	.	.	.
16BB-/LL	8r	(32G/LLL	.
.	.	32B-/	.
16BB-/	.	32e-/	.
.	.	32g/JJJ	.
16G/	(8GG\	32b-\LLL	.
.	.	32ee-\	.
16BB-/JJ	.	32gg\	.
.	.	32ff\JJJ)	.
=154	=154	=154	=154
16A/LL	8AA\L)	8ee-\L	.
16BB-/	.	.	.
16F/	8FF\	&(8dd\J&)	.
16BB-/JJ	.	.	.
16G/LL	8GG\	16ee-'\LL	.
16BB-/	.	16ff'\	.
16E-/	8EE-\J	16gg'\	.
16BB-/JJ	.	16aan'\JJ	.
=155	=155	=155	=155
16r	8BBB-\	(8ccc\L	.
16BB-/LL	.	.	.
16BB-/	8r	8bb-\J)	.
16BB-/JJ	.	.	.
16BB-/LL	8r	(32G/LLL	.
.	.	32B-/	.
16BB-/	.	32e-/	.
.	.	32g/JJJ	.
(16G/	8GG\	32b-\LLL	.
.	.	32ee-\	.
16BB-/JJ	.	32gg\	.
.	.	32ff\JJJ)	.
=156	=156	=156	=156
16A/LL)	8AA\L	32ee-\LLL	.
.	.	32dd\	.
16BB-/	.	32cc\	.
.	.	32b-\JJJ	.
16F/	8FF\	32an\LLL	.
.	.	32b-\	.
16BB-/JJ	.	32cc\	.
.	.	&(32dd\JJJ&)	.
16G/LL	8GG\	16ee-\LL	f
16BB-/	.	16f'\ 16ff'\	.
16E-/	8EE-\J	16g'\ 16gg'\	.
16BB-/JJ	.	16an'\ 16aan'\JJ	.
*v	*v	*	*
=157	=157	=157
2BBB-;/ 2BB-;/	2b-;\ 2bb-;\	f
=158	=158	=158
16BBBn/ 16BBn/	4bn\ 4bbn\	pp
16Bn\LL	.	.
16B\	.	.
16B\JJ	.	.
16B\LL	4r	.
16B\	.	.
16B\	.	.
16B\JJ	.	.
=159	=159	=159
*	*^	*
16Bn\LL	4r	4r	.
16B\	.	.	.
16B\	.	.	.
16B\JJ	.	.	.
16B\LL	8.ff#/L	[4f#\ [4an\	pp
16B\	.	.	.
16B\	.	.	.
16B\JJ	16een/Jk	.	.
=160	=160	=160	=160
*^	*	*	*
4.r	16BBn\LL	8een/L	4.f#\] 4.an\]	.
.	16Bn\	.	.	.
.	16B\	[8dd#/J	.	.
.	16B\JJ	.	.	.
.	16B\LL	16dd#/LL]	.	.
.	16B\	16ff#/	.	.
8en/	16en\	16ee/	(8g#\	.
.	16B\JJ	16cc#/JJ	.	.
=161	=161	=161	=161	=161
4d#/	&(16d#\LL&)	8cc#/L	4f#\)	.
.	16Bn\	.	.	.
.	16B\	[8bn/J	.	.
.	16B\JJ	.	.	.
4r	16B\LL	(16b/LL]	8r	.
.	16B\	16b#/	.	.
.	16D#\	16cc#/	8f#\	.
.	16B\JJ	16an/JJ)	.	.
*v	*v	*	*	*
*	*v	*v	*
=162	=162	=162
(16En\LL	(16an/LL	pp
16Bn\	16g#/	.
16G#\	16bn/	.
16B\JJ	16en/JJ	.
16F#\ 16An\LL	16e/LL	.
16B\	16d#/	.
16E\ 16G#\	16f#/	.
16B\JJ)	16e/JJ)	.
=163	=163	=163
16D#\ 16F#\LL	(16g#/LL	.
16Bn\	16f#/	.
16G#\	16bn/	.
16B\JJ	16en/JJ	.
16F#\ 16An\LL	16e/LL	.
16B\	16d#/	.
16En\ 16G#\	16f#/	.
16B\JJ	16e/JJ)	.
=164	=164	=164
*^	*	*
16F#/LL	8D#\L	4r	ff
16Bn/	.	.	.
16Fn/	[8Dn\J	.	.
[16B/JJ	.	.	.
16B/LL]	8D\] 8F\L	[4a-\ [4aa-\	ff
16B/	.	.	.
16F/	8D\J	.	.
16B/JJ	.	.	.
*v	*v	*	*
=165	=165	=165
(16E-\LL	16a-\] (16aa-\LL]	.
16B-\	16gn\ 16ggn\	.
16G\	16b-\ 16bb-\	.
16B-\JJ	16e-\ 16ee-\JJ)	.
16Fn\ 16A-\LL	16e-\ (16ee-\LL	.
16B-\	16dn\ 16ddn\	.
16E-\ 16G\	16fn\ 16ffn\	.
16B-\JJ)	16e-\ 16ee-\JJ)	.
=166	=166	=166
16D\ (16F\LL	16g\ (16gg\LL	.
16B-\	16f\ 16ff\	.
16G\	16b-\ 16bb-\	.
16B-\JJ	16e-\ 16ee-\JJ)	.
16F\ 16A-\LL	(16ee-\LL	.
16B-\	16d\ 16dd\	.
16E-\ 16G\	16f\ 16ff\	.
16B-\JJ)	16e-\ 16ee-\JJ)	.
=167	=167	=167
16D\ 16F\LL	16g\ (16gg\LL	.
16B-\	16f\ 16ff\)	.
16D-\ 16E-\	16a-\ (16aa-\	.
16B-\JJ	16g\ 16gg\JJ)	.
16C\ 16E-\LL	16b-\ (16bb-\LL	.
16c\	16a-\ 16aa-\	.
16GG\ 16E-\	16cc\ (16ccc\)	.
16G\JJ	16bn\ 16bbn\JJ)	.
=168	=168	=168
16AA-\LL	16dd\ (16ddd\LL	f
16C\	16cc\ 16ccc\	.
16F\	16b-\ 16bb-\	.
16A-\JJ	16a-\ 16aa-\JJ	.
16BB-\LL	16g\ 16gg\LL	.
16F\ 16A-\	16f\ 16ff\	.
16B-\	16a-\ 16aa-\	.
16F\ 16A-\JJ	16d\ 16dd\JJ)	.
=169	=169	=169
32E-\LLL	4e-\ 4ee-\	p
32G\	.	.
32B-\	.	.
32e-\JJJ	.	.
32B-\LLL	.	.
32e-\	.	.
32B-\	.	.
32G\JJJ	.	.
32E-\LLL	8r	.
32G\	.	.
32B-\	.	.
32e-\JJJ	.	.
32B-\LLL	8gg'\)	<
32e-\	.	.
32B-\	.	.
32G\JJJ	.	.
=170	=170	=170
32GG\LLL	4bb-\)	.
32BB-\	.	.
32E-\	.	.
32G\JJJ	.	.
32E-\LLL	.	.
32G\	.	.
32E-\	.	.
32BB-\JJJ	.	.
32GG\LLL	8r	.
32BB-\	.	.
32E-\	.	.
32G\JJJ	.	.
32E-\LLL	8eee-'\	.
32G\	.	.
32E-\	.	.
32BB-\JJJ	.	.
=171	=171	=171
32AA-\LLL	4f/	.
32C\	.	.
32E-\	.	.
32F\JJJ	.	.
32E-\LLL	.	.
32F\	.	.
32E-\	.	.
32C\JJJ	.	.
32AA-\LLL	8r	.
32C\	.	.
32E-\	.	.
32F\JJJ	.	.
32E-\LLL	8ccc'\)	.
32F\	.	.
32E-\	.	.
32F\JJJ	.	.
=172	=172	=172
32BB-\LLL	4b-\ [4bb-\	.
32A-\	.	.
32D\	.	.
32A-\JJJ	.	.
32F\LLL	.	.
32A-\	.	.
32D\	.	.
32A-\JJJ	.	.
32BB-\LLL	16b-\ (16bb-\LL]	.
32A-\	.	.
32D\	16an\ 16aan\	.
32A-\JJJ	.	.
32F\LLL	16a-\ 16aa-\	.
32A-\	.	.
32D\	16f\ 16ff\JJ)	.
32A-\JJJ	.	.
=173	=173	=173
32E-\LLL	4e-\ 4ee-\	p
32G\	.	.
32B-\	.	.
32e-\JJJ	.	.
32B-\LLL	.	.
32e-\	.	.
32B-\	.	.
32G\JJJ	.	.
32E-\LLL	8r	.
32G\	.	.
32B-\	.	.
32e-\JJJ	.	.
32B-\LLL	8gg'\)	.
32e-\	.	.
32B-\	.	.
32G\JJJ	.	.
=174	=174	=174
32GG\LLL	4bb-'\	.
32BB-\	.	.
32E-\	.	.
32G\JJJ	.	.
32E-\LLL	.	.
32G\	.	.
32E-\	.	.
32BB-\JJJ	.	.
32GG\LLL	8r	.
32BB-\	.	.
32E-\	.	.
32G\JJJ	.	.
32E-\LLL	8eee-'\	.
32G\	.	.
32E-\	.	.
32BB-\JJJ	.	.
=175	=175	=175
32AA-\LLL	4a-'/)	.
32C\	.	.
32E-\	.	.
32F\JJJ	.	.
32E-\LLL	.	.
32F\	.	.
32E-\	.	.
32C\JJJ	.	.
32AA-\LLL	8r	.
32C\	.	.
32E-\	.	.
32F\JJJ	.	.
32E-\LLL	8eee-'\	.
32F\	.	.
32E-\	.	.
32C\JJJ	.	.
=176	=176	=176
32AAn\LLL	4an'/	.
32C\	.	.
32E-\	.	.
32F\JJJ	.	.
32E-\LLL	.	.
32F\	.	.
32E-\	.	.
32C\JJJ	.	.
32AA\LLL	8r	.
32C\	.	.
32E-\	.	.
32F\JJJ	.	.
32E-\LLL	8eee-'\	.
32F\	.	.
32E-\	.	.
32C\JJJ	.	.
=177	=177	=177
32BB-\LLL	8B-/ 8b-/	.
32E-\	.	.
32G\	.	.
32B-\JJJ	.	.
32G\LLL	4b-\ (4bb-\	>
32B-\	.	.
32G\	.	.
32E-\JJJ	.	.
32BB-\LLL	.	.
32E-\	.	.
32G\	.	.
32B-\JJJ	.	.
32G\LLL	16a-\ 16aa-\LL	.
32B-\	.	.
32G\	16g\ 16gg\JJ)	.
32E-\JJJ	.	.
=178	=178	=178
32BB-\LLL	[4g\ [4gg\	p
32A-\	.	.
32B-\	.	.
32A-\JJJ	.	.
32B-\LLL	.	.
32A-\	.	.
32B-\	.	.
32A-\JJJ	.	.
32BB-\LLL	16g\] (16gg\LL]	.
32A-\	.	.
32B-\	16f\ 16ff\	.
32A-\JJJ	.	.
32B-\LLL	16a-\ 16aa-\	.
32A-\	.	.
32B-\	16d\ 16dd\JJ)	.
32A-\JJJ	.	.
=179	=179	=179
32E-\LLL	4e-\ 4ee-\	.
32G\	.	.
32B-\	.	.
32e-\JJJ	.	.
32B-\LLL	.	.
32e-\	.	.
32B-\	.	.
32G\JJJ	.	.
32E-\LLL	8r	.
32G\	.	.
32B-\	.	.
32e-\JJJ	.	.
32B-\LLL	[8g\ [8gg\	<
32e-\	.	.
32B-\	.	.
32G\JJJ	.	.
=180	=180	=180
32E-\LLL	8g\] (8gg\L]	>
32A-\	.	.
32B-\	.	.
32d\JJJ	.	.
32B-\LLL	8f\ 8ff\J)	.
32d\	.	.
32B-\	.	.
32A-\JJJ	.	.
32E-\LLL	8r	.
32A-\	.	.
32B-\	.	.
32d\JJJ	.	.
32B-\LLL	8bb-\	.
32d\	.	.
32B-\	.	.
32A-\JJJ	.	.
=181	=181	=181
32E-\LLL	4eee-\	.
32G\	.	.
32B-\	.	.
32e-\JJJ	.	.
32B-\LLL	.	.
32e-\	.	.
32B-\	.	.
32G\JJJ	.	.
32E-\LLL	8r	.
32G\	.	.
32B-\	.	.
32e-\JJJ	.	.
32B-\LLL	[8g\ [8gg\	<
32e-\	.	.
32B-\	.	.
32G\JJJ	.	.
=182	=182	=182
32E-\LLL	8g\] (8gg\L]	>
32A-\	.	.
32B-\	.	.
32d\JJJ	.	.
32B-\LLL	8f\ 8ff\J)	.
32d\	.	.
32B-\	.	.
32A-\JJJ	.	.
32E-\LLL	8r	.
32A-\	.	.
32B-\	.	.
32d\JJJ	.	.
32B-\LLL	8bb-\)	.
32d\	.	.
32B-\	.	.
32A-\JJJ	.	.
=183	=183	=183
32E-\LLL	4ee-\)	>
32G\	.	.
32B-\	.	.
32e-\JJJ	.	.
32B-\LLL	.	.
32e-\	.	.
32B-\	.	.
32G\JJJ	.	.
32BB-\LLL	8r	.
32E-\	.	.
32G\	.	.
32B-\JJJ	.	.
32G\LLL	8gg\)	.
32B-\	.	.
32G\	.	.
32E-\JJJ	.	.
=184	=184	=184
32GG\LLL	4bb-\)	.
32BB-\	.	.
32E-\	.	.
32G\JJJ	.	.
32E-\LLL	.	.
32G\	.	.
32E-\	.	.
32BB-\JJJ	.	.
32EE-/LLL	8r	.
32GG/	.	.
32BB-/	.	.
32E-/JJJ	.	.
32BB-/LLL	8eee-\	.
32E-/	.	.
32BB-/	.	.
32GG/JJJ	.	.
=185	=185	=185
32EE-/LLL	8G/ 8e-/	pp
32GG/	.	.
32BB-/	.	.
32E-/JJJ	.	.
32BB-/LLL	8r	.
32E-/	.	.
32BB-/	.	.
32GG/JJJ	.	.
32EE-/LLL	8G/ 8B-/ 8e-/	.
32GG/	.	.
32BB-/	.	.
32E-/JJJ	.	.
32BB-/LLL	8r	.
32E-/	.	.
32BB-/	.	.
32GG/JJJ	.	.
=186	=186	=186
8EE-/	8G/ 8B-/ 8e-/	.
8r;	8r;	.
==	==	==
*-	*-	*-
!!!ENC: Craig Stuart Sapp
!!!END: 2008/11/03/
!!!hum2abc: -s 0.71
